X:1
T:Title
%%score 1 2 3 4
L:1/8
Q:1/4=60
M:2/2
K:G
V:1 treble transpose=-2 nm="MusicXML Part"
V:2 treble transpose=-7 nm="MusicXML Part"
V:3 treble transpose=-7 nm="MusicXML Part"
V:4 bass nm="MusicXML Part"
V:1
[K:A] F2 A4 G2 | A2 B2 G4 || z2 G2 A2 c2 | c2 ^B2 c4 || z2 G2 A2 G2 | A2 B2 G4 | e4 ^d2 c2 | %7
w: Where right- eous-|ness doth say,|Lord, for my|sin- ful part|In wrath thou|should'st me pay|Ven- geance for|
 c2 ^B2 c4 || z2 ^E2 F2 F2 | G2 G2 A4 || z2 E2 A2 A2 | B2 B2 c4 || z2 E2 F2 G2 | A2 B2 c4 | %14
w: my de- sert,|I can it|not de- ny|But needs I|must con- fess|How that con-|ti- nual- ly|
 z2 c2 B3 A | G2 F2 ^E4 || z2 c2 e3 ^d | c2 B2 ^A4 |] %18
w: Thy laws I|do trans- gress.|Thy laws I|do trans- gress.|
V:2
[K:D] F2 F4 E2 | GF B2 ^A4 || z2 ^A2 B2 B2 | c3 B ^A4 || z2 ^A2 B(F>^G=A) | B2 B2 ^A4 | %6
w: Where right- eous-|ness _ doth say,|Lord, for my|sin- ful part|In wrath thou _ _|should'st me pay|
 c3 d>c (c2 B) | c3 B ^A4 || z2 c2 F2 ^G2 | ^G2 ^A2 B4 || z2 F2 B3 d- | dd c2 d4 || z2 z F DG(EA) | %13
w: Ven- geance _ for _|my de- sert,|I can it|not de- ny|But needs I|_ must con- fess|How that con- ti- *|
 F(F B2) ^A4 | z2 d2 c3 B | e3 (B d2) c2 || z2 d2 c2 d2 | d2 B2 B4 |] %18
w: * nual- * ly|Thy laws I|do trans- * gress.|Thy laws I|do trans- gress.|
V:3
[K:D] (D3 C/B,/) (F2 C)E | D (B,2 E) F4 || z2 F2 F3 ^G | (AF) ^G2 F4 || z2 F3 (DA)(F- | %5
w: Where _ _ right- * eous-|ness doth _ say,|Lord, for my|sin- ful _ part|In wrath _ thou|
 FE/D/)CB, F4 | z2 (F2 B)E(A^G/F/) | ^G3 G F4 || z2 z F- F B2 E | E2 E2 F4 || z2 DE F2 B2 | %11
w: _ _ _ should'st me pay|Ven- * geance for _ _|my de- sert,|I _ can it|not de- ny|But _ needs I|
 G3 E A4 || z2 C D2 E2 F- | FD CB, C4 | z2 A2 A3 F | G2 G2 F4 || z2 B2 A2 B2- | BA G4 F2 |] %18
w: must con- fess|How that con- ti-|* nual- * * ly|Thy laws I|do trans- gress.|Thy laws I|_ do trans- gress.|
V:4
 E,4 ^D,3 D, | E,2 C,2 B,,4 || z2 B,,2 E,2 G,2 | F,2 F,2 B,,4 || z2 B,,2 E,2 D,2 | C,2 C,2 B,,4 | %6
w: Where right- eous-|ness doth say,|Lord, for my|sin- ful part|In wrath thou|should'st me pay|
 B,4 A,2 G,2 | F,2 F,2 B,,4 || z2 B,2 ^G,2 A,2 | F,2 F,2 E,4 || z2 G,F, E,2 C2 | A,2 A,2 G,4 || %12
w: Ven- geance for|my de- sert,|I can it|not de- ny|But _ needs I|must con- fess|
 z2 B,,2 C,2 D,2 | E,2 C,2 B,,4 | z2 G,2 D,3 E, | A,,2 A,,2 B,,4 || z2 E,2 B,,2 E,2 | E,3 E, E,4 |] %18
w: How that con-|ti- nual- ly|Thy laws I|do trans- gress.|Thy laws I|do trans- gress.|

